X:1
T:Symphony No. 1 in C Major
T:Symphony No. 1 in C Major
T:Second Movement
T:Ludwig van Beethoven
T:Arranged for piano by Franz Liszt
C:Ludwig van Beethoven
Z:Arranged for piano
%%score { ( 1 3 5 ) | ( 2 4 ) }
L:1/8
Q:1/4=60
M:3/8
K:F
V:1 treble nm="Piano" snm="Pno."
V:3 treble 
V:5 treble 
V:2 bass 
V:4 bass 
V:1
"^Andante cantablile con moto"!pp! C | .F.F F | .A.A A | .B.B/>.A/.G/>.F/ | .E.E E | FG A | B>c.A | %7
 .G z G | Gc c | c.=B/>.c/.d/>.e/ | .f z F | .E.E E | .c.c [Ec] | .[FAf].[FAf] [FAf] | %14
 .[Afa].[Afa] [Acfa] | .[Beb].[Bb]/>.[Aa]/.[Gg]/>.[Ff]/ |!<(! [Ee][Ee][Ece] | [Fcf][Geg][Afa] | %18
 [Bb]>[cc'].[Aa]!<)! |!p! [Geg] z [Geg] | [Afa]-[Afa]/>!p![Ff]/[cac']/>[Aa]/ |!mp! [Geg] z [Geg] | %22
 [Afa]-[Afa]/>[Ff]/[cac']/>[Aa]/ | [Geg][cc']!>![cac']/>[Afa]/!mp! | %24
!mf! .[Geg][cc']/!mf![=B=b]/[cac']/>[Afa]/ |!f! .[Geg] .[G,CEG].[G,CEG] | .[G,CEG] z!p! G | %27
 .e z [G^ce] | .[Fdf] z a/>f/ | .d z [F=Bd] | .[Ece] z g/>e/ | .c.c.c | c=Bc | %33
 d[df]- [df]/4[ce]/4[=Bd]/4[ce]/4 | [=Bd] z [Gg] | [ee'] z [^ce] | [df] [Aa]/[^G^g]/[Aa]/[Ff]/ | %37
 [dd'] z [=Bd] | [ce] [Gg]/[^F^f]/[Gg]/[Ee]/ | [Cc][Cc][^C^c] | %40
!<(! [Dd]/[Ee]/[Ff]/[Gg]/[^G^g]/[Aa]/!<)! |!mf! x2 [=Bd]/>B/ | %42
 .c/>.g/[Q:1/4=36]"^ten." g2[Q:1/4=60] | g/>e/[Q:1/4=36]"^ten." e2-[Q:1/4=60] | e/>.c/ c>^c | %45
 (3d/f/a/ .=cT=B/8c/8B/8c/8A/4B/4 | c/>[Gg]/ !>![Gg]2 | g/>[Ee]/ !>![Ee-]2 | e/>[Ee]/ !^![Ee]2 | %49
 .[cea] [ce]2 |!f! .[FAcf] [^FAc^f]2 |!f! .[G=Bg] [^GBd^g]2 |!f! (3a/f/.d/ .cT=B/8c/8B/8c/8A/4B/4 | %53
 .c2 z | (3.f/.a/.g/ (3.f/.e/.d/ (3.c/.=B/.d/ | (3.c/.e/.d/ (3.c/.=B/.A/ (3.G/.^F/.A/ | %56
 (3.G/.^F/.A/ (3.G/.A/.G/ (3.=F/.E/.D/ | (3.C/.E/.F/ (3.G/.A/.=B/ (3.c/.d/.e/ | %58
 (3.f/.f/.f/ (3.f/.e/.d/ (3.d/.=B/.d/ | (3.c/.c/.c/ (3.c/.=B/.A/ (3.G/.^F/.A/ | %60
 (3.G/.^F/.A/ (3.G/.A/.G/ (3.=F/.E/.D/ | .C z!p! G | c z [Gg] |.[cc'] .C.C | .C z :| C | ._E z G | %67
 .c z [C_E] | .[_EG] z [Gc] | .[c_e] z [C_E_G] |!<(! .[_E_Gc] z [EGc_e] | %71
 .[_Gc_e_g] z!<)!!ff! [cegc'] | %72
 .[_df_d']/ z/4!>(! .[_A,_DF]/<.[A,DF]/.[A,DF]/<.[A,DF]/.[A,DF]/4!>)! |!p! [_A,_DF]/ z/ z A | %74
 z z _a | _g'2 _A | z z _a | f'2 F | [_E_e]2 f | _e'2 F | z z!p! _d | =B z!p! =B |!mp! .[Ece] z2 | %83
 x2 [=B,D_A=B] | .[CEGc][CEGc] z | z2!f! [=Bd_a=b] | .[cegc'] [ce=a][df_b] | [d^gf'][eae'] [Ac^f] | %88
 [Bd=g] [Be_d'][c=fc'] | [^FA^d][GBe] [G^cb] |[A=da] [D=F_A=B][EG=c] | [C_E_G=A][DF_B] [=B,DF^G] | %92
[CFA]!p!!<(! c/>c/c/>c/ | c/>c/c/>c/c/>c/!<)! |!f! [Gceg-]3 | g/>!p!.^f/.g/>.f/.g/>.a/ | %96
!f! [Begb-]3 | b/>.a/.g/>.f/.e/>.d/ | z z!p! g | .b z g | .b x2 | e/d/ c/_B/!pp! A/G/ | F x2 | %103
 .A.A A | .B.B/>.A/.G/>.F/ | .E.E E | FGA | B>cA | G/[ce]/4[df]/4 .[eg]/.[df]/.[ce]/.[=Bd]/ | %109
 .[Ac]/.[G=B]/.[FA]/.[EG]/.[DF]/.[CE]/ | .[=B,D]/.[G=B]/ .[GB]/.[Ac]/.[Bd]/.[ce]/ | %111
 .[df]/.[^ce]/.[df]/.[ce]/.[df]/.[eg]/ | [=ce]/e/4f/4 .g/.e/ .c | z/ g/4a/4 ._b/.g/ e | %114
 .[FAf].[FAf] [FAcf] | .[Acfa].[Acfa] [Acfa] | .[Beb].[Bb]/>.[Aa]/.[Gg]/>.[Ff]/ | %117
 .[Ee].[EGe][EGce] |!p!!<(! [Fcf][GBeg][Afa] | [Bgb]>[cc'][Afa]!<)! |!mp! [Geg] z [Geg] | %121
 a2 [cfc']/>[Aa]/ | .[Geg] z [Geg] | a2 [cfc']/>[Aa]/ | .[Geg] [cc']>[Afa] | %125
 .[Geg] [dbd']/!mf![cac']/[Bgb]/[Afa]/ |!f! .[Geg] .[CEG].[CEG] | .[CEG] z!p! c | .a z a | %129
 .b z d'/>b/ | g z g |.a z c'/>a/ | .f.f.f | fef | [cg][gb]- [gb]/4[fa]/4[eg]/4[fa]/4 | [eg] z z | %136
 x2 [^fa] | [gb] d'/^c'/d'/b/ | [Beb] x [eg] |[fa] c'/=b/c'/a/ | [Ff]f^f | %141
!<(! [GBdg]/[Aa]/[Bb]/[cc']/[^c^c']/!mf![dd']/!<)! |!p! f3/2 g/8f/8e/8f/8 g/>e/ | %143
 .f/>.c'/[Q:1/4=36]"^ten." c'2-[Q:1/4=60] | c'/>a/[Q:1/4=36]"^ten." a2-[Q:1/4=60] | %145
 a/>f/[Q:1/4=36]"^ten." f>[Q:1/4=60]^f | (3g/b/d'/ .=f=e/8f/8e/8f/8d/4e/4 | %147
!f! f/>[cc']/[Q:1/4=36]"^ten." !^![cc']2-[Q:1/4=60] | [cc']/>[Aa]/ !^![Aa]2- | %149
 [Aa]/>[Aa]/ !^![Aa]2 | .[FAf] [A_efa]2 |!f! .[Bdb] [=Bdf=b]2 |!f! .[c=ec'] [^ceg^c']2 | %153
!f! (3d'/b/g/ .fe/8f/8e/8f/8d/4e/4 | f x2 | (3.b/.a/.c'/ (3.b/.a/.g/ (3.f/.e/.g/ | %156
 (3.f/.a/.g/ (3.f/.e/.d/ (3.c/.=B/.d/ | (3.c/.=B/.d/ (3.c/.d/.c/ (3._B/.A/.G/ | %158
 (3.F/.A/.B/ (3.c/.d/.e/ (3.f/.g/.a/ | (3.b/.b/.b/ (3.b/.a/.g/ (3.f/.e/.g/ | %160
 (3.f/.f/.f/ (3.f/.e/.d/ (3.c/.=B/.d/ | (3.c/.=B/.d/ (3.c/.d/.c/ (3._B/.A/.G/ | .F z!p! c |.f z2 | %164
 z z [cc'] | [cc']2 [Aa]/>[Ff]/ | .[GBe] .[ce]/>.[df]/.[eg]/>.[fa]/ | [gb] x [EG] | F[EG][FA] | %169
 [GB]>c[FA] |!<(! [EG] .[EG].[EG] | [EG] x2!<)! | G[^FA][GB] | [Ac]>d[GB] | [^FA].[FA].[FA] | %175
 [^FA] x2 | B[Ac][Bd] | [c_e]>[Af]d | [Ac]>[^Fd][G=B] | [G_B]>[Ec][=FA] | %180
 [DGd]/[Gdg]/ z/ [Ac^fa]/ z/ [Bdgb]/ |!f! .[c=fc']/.[cfa]/.[Acf]/.[FAc]/.[CFA]/.[A,CF]/ | %182
 [A,CFA][B,GB][G,CEG] | F x [Af] | .[fa] x [fa] | b-b/>.a/.g/>.f/ | .e/>.d/.c/>.B/.A/>.G/ | %187
 .F x [Af] |.[fa] x [fa] | b-b/>.a/.g/>.f/ | .e/>.d/.A3/4 x/4 x | .f'{/=B} .c z | z{/=B} .c z | %193
 z{/=b} .c' [eg] | .[fa]{/=b} .c'!f! [eg_be'] | .[faf'] .[A,CA].[A,CA] | [A,CF]2 |] %197
V:2
 z | z3 | z3 | z3 | z3 | z3 | z z!pp! F, | .C.C C | .E.E E | F.F/>.E/.D/>.C/ | %10
 .=B,.B,!pp! [G,,,G,,] | .[C,,C,].[C,,C,] [C,,C,] | .[E,,E,].[E,,C,E,] [G,,C,G,] | %13
 .[F,,A,] [F,A,][A,C] | .[F,,F,] [A,C][A,F] | !arpeggio!.[C,G,B,E] .[E,,C,E,].[G,,C,G,] | %16
"^cresc." [C,G,C]2 [B,,B,] | A,/C,/G,/C,/F,/C,/ | E,/C,/C,/C,/F,/C,/ | %19
 z/ [C,C]/[C,C]/[C,C]/ B,/C,/ |!p! A,/C,/C/C,/F,/!p!C,/ | z/ [C,C]/[C,C]/[C,C]/ B,/C,/ | %22
 A,/C,/C/C,/F,/!mp!C,/ | C,/[C,C]/[E,G,C]/[C,C]/A,/!mp!F,/ | C,/[C,C]/[E,G,C]/[C,C]/A,/F,/ | %25
 .[C,,C,].[C,,C,].[C,,C,] | .[C,,C,] z z | z .^C.A, | .D.D, A/>F/ | .D .=B,.G, | .C.C, z | %31
 .[E,G,].E.E | E[DF][CE] | [=B,D][G,B,]C | G,G z | z .[^C,^C].[A,,A,] | .D, .F.D | %37
[K:treble] .[G=B][K:bass] .[=B,,=B,].[G,,G,] | .C, .E.C | .[E,,G,].[E,,G,].[E,,G,] | .[F,,A,] z z | %41
 z .[G,,G,].[G,D] | .[C,G,C] z3/4 .F/<.E/.=B,/4 | .C z3/4 .D/<.C/.^G,/4 | .A, z3/4 .B,/<.A,/.E,/4 | %45
 .F,/>.D,/ .G,.[G,,G,] |!f! .[C,C] z3/4 .[F,F]/<.[E,E]/.[=B,,=B,]/4 | %47
 .[C,C] z3/4 .[D,D]/<.[C,C]/.[^G,,^G,]/4 | .[A,,A,] z3/4 .[D,D]/<.[C,C]/.[^G,,^G,]/4 | %49
 .[A,,A,] [G,,G,]2 | .[F,,F,] [D,,D,]2 | .[G,,G,] [E,,E,]2 | .[F,,F,].[G,,G,].[G,,G,] | x .G,.G, | %54
 G,3- | G,3- | G,G,G, | G,G,G, | G,3- | G,3- | G,G,G, | .C, z z | z z [G,,G,] | %63
.[C,C] .[E,G,].[E,G,] | .[E,G,] z :| z |[K:treble] c3 | z3 | [c_e]3 | z z[K:bass] [_A,,_A,] | %70
 .[_E,,_E,] z [C,,C,] | .[_A,,,_A,,] z [A,,_E,_G,C] | %72
 .[_D,F,_D]/ z/4 .[_D,,_D,]/<.[D,,D,]/.[D,,D,]/<.[D,,D,]/.[D,,D,]/4 | %73
 .[_D,,_D,]/>.[D,F,_A,]/.[D,F,A,]/>.[D,F,A,]/.[D,F,A,]/>.[D,F,A,]/ | %74
 .[C,_E,_G,_A,]/>!p!.[C,E,G,A,]/.[C,E,G,A,]/>.[C,E,G,A,]/.[C,E,G,A,]/>.[C,E,G,A,]/ | %75
 .[C,_E,_G,_A,]/>.[C,E,G,A,]/.[C,E,G,A,]/>.[C,E,G,A,]/.[C,E,G,A,]/>.[C,E,G,A,]/ | %76
 .[_D,F,_A,]/>!p!.[D,F,A,]/.[D,F,A,]/>.[D,F,A,]/.[D,F,A,]/>.[D,F,A,]/ | %77
 .[_D,F,_A,]/>.[D,F,A,]/.[D,F,A,]/>.[D,F,A,]/.[D,F,A,]/>.[D,F,A,]/ | %78
 .[C,_E,F,=A,]/>!p!.[C,E,F,A,]/.[C,E,F,A,]/>.[C,E,F,A,]/.[C,E,F,A,]/>.[C,E,F,A,]/ | %79
 .[C,_E,F,=A,]/>.[C,E,F,A,]/.[C,E,F,A,]/>.[C,E,F,A,]/.[C,E,F,A,]/>.[C,E,F,A,]/ | %80
 .[B,,_D,F,B,]/>!p!.[B,,D,F,B,]/.[B,,D,F,B,]/>.[B,,D,F,B,]/.[B,,D,F,B,]/>.[B,,D,F,B,]/ | %81
 .[_D,F,=B,]/>!p!.[D,F,B,]/.[D,F,B,]/>.[D,F,B,]/.[D,F,B,]/>.[D,F,B,]/ | %82
 .[C,G,C]/ z/4!p! x/4 x [E,G,] | .[F,_A,].[F,A,]!f! [C,F,] | .C,.C,!p! [E,G,] | %85
 .[F,_A,][F,A,] [C,F,] | C, x x | =B,C x | x G,A, | x x E, |F,!ped! x2!ped-up! |!ped! x3!ped-up! | %92
 x/ [C,C]/A,/[C,C]/B,/[C,C]/ | G,/[C,C]/_A,/[C,C]/=A,/[C,C]/ |!ped! [B,,B,]3 | z3!ped-up! | %96
!ped! [G,CEG]3 | z3!ped-up! | z z[K:treble] E | .G z E | .G z2 | z3 | %102
 z/[K:bass]!pp! A,/4B,/4 .C/.B,/.A,/.G,/ | .F,/.E,/.D,/.C,/.B,,/.A,,/ | %104
 .G,,/.^F,,/.G,,/.A,,/.B,,/.=B,,/ | .C,/.G,/.A,/.=B,/.C/._B,/ | .A,/.C,/.G,/.C,/.F,/.C,/ | z z F, | %108
 .C.C C | .E .C, z | z .G,, z | .=B,.B,.B, | .C.C/>.=B,/.C/>.D/ | ._B,.B,/>.A,/.B,/>.C/ | %114
!p! A,/ [A,,A,]/4[B,,B,]/4 .[C,C]/.[B,,B,]/.[A,,A,]/.[G,,G,]/ | %115
 .[F,,F,]/.[E,,E,]/.[D,,D,]/.[C,,C,]/.[B,,,B,,]/.[A,,,A,,]/ | %116
 .[G,,,G,,]/.[^F,,,^F,,]/.[G,,,G,,]/.[A,,,A,,]/.[B,,,B,,]/.[=B,,,=B,,]/ | %117
 .[C,,C,]/.[G,,G,]/.[A,,A,]/.[=B,,=B,]/"^cresc.".[C,C]/.[_B,,_B,]/ | %118
 .[A,,A,]/.[C,,C,]/.[G,,G,]/.[C,,C,]/.[F,,F,]/.[C,,C,]/ | %119
 .[E,,E,]/.[G,,G,]/.[E,,E,]/.[C,,C,]/.[F,,F,]/.[A,,A,]/ | x C x | %121
 .[A,,A,]/!mp!!<(!.[C,C]/.[C,C]/.[C,C]/.[A,,A,]/.[F,,F,]/ | x C x!<)! | %123
 .[A,,A,]/!mf!.[C,C]/.[C,C]/.[C,C]/.[A,,A,]/.[F,,F,]/ | %124
 .[C,,C,]/.[C,,C,]/.[E,,E,]/!mf!.[C,,C,]/.[F,,F,]/.[A,,A,]/ | %125
 .[C,C]/.[C,,C,]/.[C,,C,]/.[C,,C,]/.[F,,F,]/.[A,,A,]/ | .[C,C] .[C,,C,].[C,,C,] | .[C,,C,] z z | %128
 z[K:treble] .^F.D | .G.G, z | .G .E.C | .F.F, z | .[A,C].A.A | AGF | ECF | %135
[K:bass] .C.C,[K:treble] C |.A[K:bass] x D | D .B,.G, | [CG] z C- |C C/=B,/C/A,/ | %140
 .C/._E/.C/.E/.C/.E/ | [B,,D]2 z | z C, C, | .F,, z3/4 .[B,G]/<.[A,A]/.E,/4 | %144
 .F, z3/4 .G/<.F/.^C/4 | .D z3/4 ._E/<.D/.A,/4 | .B,.C.C, | F,/>C/ !^!C2- | C/>A,/ !^!A,2- | %149
 A,/>A,/ !^!A,2 | .[D,,D,] [=C,F,=C]2 | .[B,,B,] [G,,G,]2 | .[C,C] [A,,A,]2 | [B,,B,][C,C][C,,C,] | %154
 z CC | C3- | C3- | C3- | CCC | C3- | C3- | CCC | .[F,,F,] z C |.F z C, | .F,.F, F, | %165
 .A,.A, [F,A,C] |.[C,C][K:treble] .[GB]/>.[FA]/.[EG]/>.[DF]/ | [CE]2[K:bass] [B,,B,] | %168
 .[A,,A,].[G,,G,].[F,,F,] | .[E,,E,].[C,,C,].[F,,F,] |!<(! .[C,,C,].[C,G,].[C,G,]!<)! | %171
!f! .[C,G,] z z |!p! .[B,,B,].[A,,A,].[G,,G,] | .[^F,,^F,].[D,,D,].[G,,G,] | %174
!p!!<(! .[D,,D,].[D,A,].[D,A,] | .[D,A,] z2!<)! |!f! [D,D][C,C][B,,B,] | %177
!ped! [A,,A,]!^![F,,F,]!ped-up![B,,B,] |!ped! !^![^F,,^F,][D,,D,]!ped-up![G,,G,] | %179
!ped! [E,,E,][C,,C,]!ped-up!!^![=F,,=F,] | [B,,B,][A,,A,][G,,G,] | .[C,A,C].[C,A,C] [C,,C,] | %182
 [C,,C,][C,,C,][C,,C,] |!p! F,/>.C/.C/>.C/z/>.C/ | z3/4 .[A,C]/<.[A,C]/.[A,C]/<z/.[A,C]/4 | %185
 z3/4 .[G,B,C]/<.[G,B,C]/.[G,B,C]/<z/.[G,B,C]/4 | z3/4 .[B,C]/<.[B,C]/.[B,C]/<.C/.C/4 | %187
 z3/4 .C/<.C/.C/<z/.C/4 | z3/4 .[A,C]/<.[A,C]/.[A,C]/<z/.[A,C]/4 | %189
 z3/4 .[G,B,C]/<.[G,B,C]/.[G,B,D]/<.[G,B,E]/.[G,B,F]/4 | %190
[K:treble] [B,CG]/>[B,CA]/[B,CB]/>[B,CB]/[B,CA]/>[B,CG]/ | .[F,A,CF] z [CG] | .[FA] z [CG] | %193
 .[A,F]{/=B} .c [CG] | .[FA]{/=B} .c[K:bass] [C,C] | .[F,F]!p! .[F,,F,].[F,,F,] | !^![F,,F,]2 |] %197
V:3
 x | x3 | x3 | x3 | x3 | x3 | x3 | x3 | x3 | x3 | x2 =B, | .C.C/>.=B,/.C/>.D/ | %12
 ._B,.B,/>.A,/.B,/>.C/ | x3 | x3 | x2 B | BGG | x3 | gef | x3 | x3 | x3 | x3 | x3 | x3 | x3 | x3 | %27
 x3 | x3 | x3 | x2 G/>[I:staff +1]E/ | .C[I:staff -1].G.G | G2 G | G2[I:staff +1] G | %34
 G[I:staff -1] x2 | .g/.e/.^c/.A/.G/.E/ | .F/[I:staff +1].D/[I:staff -1] x2 | .f/.d/.=B/.G/.F/.D/ | %38
 .E/[I:staff +1].C/[I:staff -1] x2 | .G/._B/.G/.B/.G/.B/ | A x2 | E/=G/E/G/F/G/ | %42
 E z3/4 .[=Bd]/<.[ce]/.[df]/4 | .[ce] z3/4 .[^G=B]/<.[Ac]/.[Bd]/4 | %44
 .[Ac] z3/4 .[E=G]/<.[FA]/.[G_B]/4 | A [EG]F | E z3/4 .[=Bd]/<.[ce]/.[Gdf]/4 | %47
 [Gce] z3/4 .[^G=B]/<.[Ac]/.[EBd]/4 | [EAc] z3/4 .[=Be^g]/<.[cea]/.[de=b]/4 | z [E_B]2 | x3 | x3 | %52
 (3:2:2[Ad][FA]/ [E=G][DF] | .[CE]2 x | .[DG=B] z .[DF] | .[EG] z .[CE] | [=B,D] [B,=F] B, | %57
 [CE] [CE] [EG] | [D=B] z [DF] | [EG] z [CE] | [D=F] [=B,=F] B, | [G,E] x2 | x3 | x3 | x2 :| x | %66
 x3 | x3 | x3 | x3 | x3 | x3 | x3 | x3 | [_G_g]3 | x3 | [Ff]3 | x3 | x3 | x3 | .[_D_d] [Ff]2- | %81
 [Ff] [Ff]2 | x3 | x3 | x3 | x3 | x3 | x3 | x3 | x3 | x3 | x3 | x [^F^f][=G=g] | [Ee][=F=f][^F^f] | %94
 x3 | x3 | x3 | x3 | c3- | c/>=B/c/>B/c/>B/ | c2 ^c | x2 C | .F.F F | x3 | x3 | x3 | C3- | C2 =B, | %108
 x3 | x3 | .F .F/>[I:staff +1].E/.D/>.C/ | x3 |[I:staff -1] z z/ E/4F/4 .G/.E/ | %113
 C z/ G/4A/4 .[Bc]/.E/ | x3 | x3 | x3 | x3 | x3 | x3 | x3 | [A-f]!<(!A/>F/ x | x3!<)! | %123
 [A-f]A/>F/ x | x z [fa] | x3 | x3 | x3 | x2 [c^f] | .[Bg] x d/>[I:staff +1]B/ | %130
[I:staff -1] x2 [Be] |.[Af] x c/>[I:staff +1]A/ | .F[I:staff -1].c.c | cBA | x3 | x3 | %136
 .c'/.a/.^f/.d/.c/.A/ | .B/.G/ d/^c/d/B/ | B/.g/.e/.=c/.B/.G/ | .A/.F/c/=B/c/A/ | x [Fc][^Fc_e] | %141
 x3 | A/F/[I:staff +1]C/A,/!arpeggio![B,E]/C/ |[I:staff -1] [FA] z3/4 .e/<.f/.[Bg]/4 | %144
 .[Af] z3/4 .[^ce]/<.[df]/.[eg]/4 | .[df] z3/4 .[A=c]/<.[Bd]/.[c_e]/4 | [Bd] [Ac][GB] | %147
 [FA] z3/4 .[EG]/<.[FA]/.[GB]/4 | [CFA] z3/4 .[^CE]/<.[DF]/.[A,EG]/4 | %149
 [A,DF] z3/4 .[EA^c]/<.[FAd]/.[GAe]/4 | x3 | x3 | x3 | (3:2:2[dg][Bd]/ [A=c][GB] | [FA] .c.c | %155
 .[Gce] z .[GB] | .[FA] z .[FA] | .[EG] .[E_B] .[EB] | [FA] [FA] [Ac] | [Ge] z [GB] | [FA] z [FA] | %161
 _B [EG] [_B,E] | x3 | x3 | x3 | x3 | x3 | z/ .[Cc]/.[Cc]/.[Cc]/.[Cc]/.[Cc]/ | %168
 .[Cc]/.[Cc]/.[Cc]/.[Cc]/.[Cc]/.[Cc]/ | [Cc]/[Cc]/[Cc]/[Cc]/[Cc]/[Cc]/ | %170
 [Cc]/[Cc]/[Cc]/[Cc]/[Cc]/[Cc]/ | [Cc]/[Cc]/[Cc]/[Cc]/[^C^c]/!f![Cc]/ | %172
 [Dd]/[Dd]/[Dd]/[Dd]/[Dd]/[Dd]/ | [Dd]/[Dd]/[Dd]/[Dd]/[Dd]/[Dd]/ | [Dd]/[Dd]/[Dd]/[Dd]/[Dd]/[Dd]/ | %175
 [Dd]/[Dd]/[_E_e]/[Ee]/[=E=e]/[Ee]/ | [=F=f]/[Ff]/[Ff]/[Ff]/[Ff]/[Ff]/ | f/!f!f/f/F/[DB]/[Dd]/ | %178
 [Dd]/!f!d/d/D/[Dd]/[Dd]/ | [Cc]/!f![Cc]/[Cc]/C/[Cc]/[Cc]/ | x3 | x3 | x3 | A,.[A,F] x | %184
 x .[FA] c | [Be][Be] B | [EB] E [B,E] | [A,F].[A,F] x | z .[FA]c | [Be].c/>.d/.e/>.f/ | %190
 .g/>.a/.b/>.c'/.d'/>.e'/ | x3 | x3 | x3 | x3 | x3 | x2 |] %197
V:4
 x | x3 | x3 | x3 | x3 | x3 | x3 | x3 | x3 | x3 | x3 | x3 | x3 | x3 | x3 | x3 | x3 | %17
 [A,,A,][G,,G,][F,,F,] | [E,,E,][C,,C,][F,,F,] | [C,,C,] x [B,,B,] | A,, z !^!F,, | %21
 [C,,C,] x [B,,B,] | A,, z !>!F,, | [C,,C,] z !^!F,, | [C,,C,] x !^!F,, | x3 | x3 | x3 | x3 | x3 | %30
 x3 | x3 | x3 | x3 | x3 | x3 | x3 |[K:treble] x[K:bass] x2 | x3 | x3 | x3 | x3 | x3 | x3 | x3 | %45
 x3 | x3 | x3 | x3 | x3 | x3 | x3 | x3 | .[C,,C,]/ z/4!pp! G,,/<.G,,/G,,/<.G,,/G,,/4 | %54
 .G,,/>G,,/.G,,/>G,,/.G,,/>G,,/ | .G,,/>G,,/.G,,/>G,,/.G,,/>G,,/ | .G,,/>G,,/.G,,/>G,,/.G,,/>G,,/ | %57
 .G,,/>G,,/.G,,/>G,,/.G,,/>G,,/ | .G,,/>G,,/.G,,/>G,,/.G,,/>G,,/ | .G,,/>G,,/.G,,/>G,,/.G,,/>G,,/ | %60
 .G,,/>G,,/.G,,/>G,,/.G,,/>G,,/ | C,, x2 | x3 | x .[C,,C,].[C,,C,] | .[C,,C,] x :| x | %66
[K:treble] x3 | x3 | x3 | x2[K:bass] x | x3 | x3 | x3 | x3 | x3 | x3 | x3 | x3 | x3 | x3 | x3 | %81
 x3 | x/ x/4 C,,/<.C,,/C,,/<.C,,/C,,/4 | .C,,/>C,,/.C,,/>C,,/F,,/>C,,/ | %84
 .C,,/>C,,/.C,,/>C,,/.C,,/>C,,/ | .C,,/>C,,/.C,,/>C,,/F,,/>C,,/ | C,,/>!p!.C,/.C,/>.C,/.C,/>.C,/ | %87
 .C,/>C,/.C,/>C,/.C,/>C,/ | .C,/>C,/.C,/>C,/.C,/>C,/ | .C,/>C,/.C,/>C,/.C,/>C,/ | %90
 C,/>C,,/ !///-!C, C,, | !///-!C,3/2 C,,3/2 | C,/ x/ [A,,A,][B,,B,] | [G,,G,][_A,,_A,][=A,,=A,] | %94
 x3 | x2 x/!f! C,,/4C,/4 | x3 | x3 | x2[K:treble] x | x3 | x3 | x3 | x/[K:bass] x5/2 | x3 | x3 | %105
 x3 | x3 | .E,/.C,/.E,/.C,/.F,/.C,/ | .E,/.C,/.E,/.G,/ C | x3 | x3 | z2 G,, | .C,.C, C, | %113
 .E,.E, G, | F,/ x/ x2 | x3 | x3 | x3 | x3 | x3 | .[C,,C,]/.[C,C]/.[C,C]/.[C,C]/.[B,,B,]/.[C,C]/ | %121
 x3 | .[C,,C,]/.[C,C]/.[C,C]/.[C,C]/.[B,,B,]/!mf!.[C,C]/ | x3 | x3 | x3 | x3 | x3 | %128
 x[K:treble] x2 | x3 | x3 | x3 | x3 | x3 | x3 |[K:bass] x2[K:treble] x | x[K:bass] .^F,.D, | %137
 .G,.G,, z | z .E,.C, | .F,!arpeggio!.F,, z | !arpeggio![A,,F,] A,A, | x3 | x3 | x3 | x3 | x3 | %146
 x3 | F, z3/4 .[B,,B,]/<.[A,,A,]/.[E,,E,]/4 | !^![F,,F,] z3/4 .[G,,G,]/<.[F,,F,]/.[^C,,^C,]/4 | %149
 [D,,D,] z3/4 .[G,,G,]/<.[F,,F,]/.[^C,,^C,]/4 | x3 | x3 | x3 | x3 | %154
 [F,,F,]/>!pp!C,/.C,/>C,/.C,/>C,/ | .C,/>C,/.C,/>C,/.C,/>C,/ | .C,/>C,/.C,/>C,/.C,/>C,/ | %157
 .C,/>C,/.C,/>C,/.C,/>C,/ | .C,/>C,/.C,/>C,/.C,/>C,/ | .C,/>C,/.C,/>C,/.C,/>C,/ | %160
 .C,/>C,/.C,/>C,/.C,/>C,/ | .C,/>C,/.C,/>C,/.C,/>C,/ | x3 | x3 | x2 A,, |F,, z x | x[K:treble] x2 | %167
 x2[K:bass] x | x3 | x3 | x3 | x3 | x3 | x3 | x3 | x3 | x3 | x3 | x3 | x3 | x3 | x3 | x3 | %183
 !^![F,,F,] z C, | .A,, z .F,, | C,, z E,, | G,, z C, | !^!F,, z C, | A,, z !^!F,, | C,, x2 | %190
[K:treble] x3 | x3 | x3 | x3 | x2[K:bass] x | x3 | x2 |] %197
V:5
 x | x3 | x3 | x3 | x3 | x3 | x3 | x3 | x3 | x3 | x3 | x3 | x3 | x3 | x3 | x3 | x3 | x3 | x3 | x3 | %20
 x3 | x3 | x3 | x3 | x3 | x3 | x3 | x3 | x3 | x3 | x3 | x3 | x3 | x3 | x3 | x3 | x3 | x3 | x3 | %39
 x3 | x3 | c3/2 d/8c/8=B/8c/8 x | x3 | x3 | x3 | x3 | x3 | x3 | x3 | x3 | x3 | x3 | x3 | z .G.G | %54
 x3 | x3 | x3 | x3 | x3 | x3 | x3 | x3 | x3 | x3 | x2 :| x | x3 | x3 | x3 | x3 | x3 | x3 | x3 | %73
 x3 | x3 | x3 | x3 | x3 | x3 | x3 | x3 | x3 | x3 | x3 | x3 | x3 | x3 | x3 | x3 | x3 | x3 | x3 | %92
 x3 | x3 | x3 | x3 | x3 | x3 | x3 | x3 | x3 | x3 | x3 | x3 | x3 | x3 | x3 | x3 | x3 | x3 | x3 | %111
 x3 | x3 | x3 | x3 | x3 | x3 | x3 | x3 | x3 | x3 | x3 | x3 | x3 | x3 | x3 | x3 | x3 | x3 | x3 | %130
 x3 | x3 | x3 | x3 | x3 | x3 | x3 | x3 | x3 | x3 | x3 | x3 | x3 | x3 | x3 | x3 | x3 | x3 | x3 | %149
 x3 | x3 | x3 | x3 | x3 | x3 | x3 | x3 | x3 | x3 | x3 | x3 | x3 | x3 | x3 | x3 | x3 | x3 | x3 | %168
 x3 | x3 | x3 | x3 | x3 | x3 | x3 | x3 | x3 | x3 | x3 | x3 | x3 | x3 | x3 | x3 | x3 | x3 | x3 | %187
 x3 | x3 | x3 | x3 | x3 | x3 | x3 | x3 | x3 | x2 |] %197

